X:1
T:Forgotten Daze
Z:robin.beech@mcgill.ca
S:Michael McGoldrick: Wired
R:slide
M:12/8
L:1/8
K:G
Bcd | e2d egG-G2D GAB | B2A A2G ABA Bcd |
e2d egG-G2D GAB | B2A GAB E3 :: Bcd | e2f gea- a2f g2b |
age e2d ABA Bcd |1 e2f gea- a2f g2b | age e2d e3  :|2
e/f/ge age bag eag | edB d2B A3 |]
